F[ERK3
CUT[DASS IM WALD FINSTR IS]
REG[Europa, Mitteleuropa, Oesterreich]
KEY[E1042  08  G 3/4]
MEL[  (35+1)1__  -511335  5_.4-7_
    (247)-7__  -5-7-7_-7_  5__.
    (35+1)1__  -511335  5_.4-7_
    (247)-7__  -5-7544-7  1__0_ //] >>
FCT[Tanz - Lied; Liebe, Klage; Jodler]
